Newaita-dark/apps/32/python.svg

<svg height="32pt" viewBox="0 0 32 32" width="32pt" xmlns="http://www.w3.org/2000/svg" xmlns:xlink="http://www.w3.org/1999/xlink"><linearGradient id="a"><stop offset="0" stop-opacity=".313726"/><stop offset=".222222" stop-opacity=".27451"/><stop offset="1" stop-opacity="0"/></linearGradient><radialGradient id="b" cx="450.908936" cy="189.579361" gradientTransform="matrix(.00000017 -.0683658 -.140638 -.00000009 42.869346 59.315508)" gradientUnits="userSpaceOnUse" r="21.166656" xlink:href="#a"/><radialGradient id="c" cx="450.908936" cy="189.579361" gradientTransform="matrix(-.00000017 .0683658 .140638 .00000009 -11.116314 -2.916897)" gradientUnits="userSpaceOnUse" r="21.166656" xlink:href="#a"/><radialGradient id="d" cx="450.908936" cy="189.579361" gradientTransform="matrix(-.00000017 -.0683658 .140638 -.00000009 -11.116314 59.315508)" gradientUnits="userSpaceOnUse" r="21.166656" xlink:href="#a"/><radialGradient id="e" cx="450.908936" cy="189.579361" gradientTransform="matrix(.00000017 .0683658 -.140638 .00000009 42.869344 -2.916898)" gradientUnits="userSpaceOnUse" r="21.166656" xlink:href="#a"/><linearGradient id="f" gradientTransform="matrix(.0133601 0 0 .0546927 12.465385 15.428569)" gradientUnits="userSpaceOnUse" x1="255.323059" x2="255.323044" y1="233.5" y2="254.666656"><stop offset="0" stop-opacity=".27451"/><stop offset="1" stop-opacity="0"/></linearGradient><linearGradient id="g" gradientUnits="userSpaceOnUse" x1="16.53804650006" x2="16.53804650006" y1="28.033934" y2="9.51132275001"><stop offset="0" stop-color="#ffa726"/><stop offset="1" stop-color="#ffb74d"/></linearGradient><linearGradient id="h" gradientUnits="userSpaceOnUse" x1="11.90736" x2="11.90736" y1="21.41866419623" y2="2.89610343548"><stop offset="0" stop-color="#42a5f5"/><stop offset="1" stop-color="#64b5f6"/></linearGradient><path d="m16.539062 28.199219h2.644532v-1.15625h-2.644532zm0 0" fill="url(#b)"/><path d="m15.214844 28.199219h-2.644532v1.15625h2.644532zm0 0" fill="url(#c)"/><path d="m15.214844 28.199219h-2.644532v-1.15625h2.644532zm0 0" fill="url(#d)"/><path d="m16.539062 28.199219h2.644532v1.15625h-2.644532zm0 0" fill="url(#e)"/><path d="m15.214844 27.910156h1.324218v1.445313h-1.324218zm0 0" fill="url(#f)"/><path d="m13.890625 3.804688c-.363281 0-.660156.296874-.660156.664062 0 .054688.007812.109375.019531.164062.074219-.285156.332031-.496093.640625-.496093.3125 0 .570313.210937.640625.496093.015625-.054687.023438-.109374.023438-.164062 0-.367188-.296876-.664062-.664063-.664062zm-3.78125 3.96875c-.023437.109374-.046875.222656-.070313.332031h5.835938v-.332031zm11.722656 5.292968c0 1.101563-.886719 1.984375-1.988281 1.984375h-7.9375c-1.097656 0-1.984375.886719-1.984375 1.984375v.332032c0-1.101563.886719-1.984376 1.984375-1.984376h7.9375c1.101562 0 1.988281-.886718 1.988281-1.984374zm-18.523437 2.152344v.164062c0 3.296876 2.949218 5.953126 6.613281 5.953126v-.332032c-3.601563 0-6.515625-2.566406-6.613281-5.785156zm0 0" fill-opacity=".235294"/><path d="m15.875 28.035156c2.890625 0 5.289062-2.265625 5.835938-5.292968h-5.835938v-1.324219h3.96875.003906 1.984375c3.664063 0 6.613281-2.65625 6.613281-5.953125s-2.949218-5.953125-6.613281-5.953125v3.96875c0 1.097656-.886719 1.984375-1.988281 1.984375h-7.9375c-1.097656 0-1.984375.886718-1.984375 1.984375v3.96875c0 3.664062 2.65625 6.617187 5.953125 6.617187zm1.984375-1.324218c-.363281 0-.660156-.296876-.660156-.660157 0-.367187.296875-.664062.660156-.664062.367187 0 .664063.296875.664063.664062 0 .363281-.296876.660157-.664063.660157zm0 0" fill="url(#g)"/><path d="m9.921875 13.480469v4.628906c0-1.097656.886719-1.984375 1.984375-1.984375h7.9375c1.101562 0 1.988281-.882812 1.988281-1.984375v-.660156zm0 0" fill-opacity=".235294"/><path d="m15.875 2.894531c-2.890625 0-5.285156 2.265625-5.835938 5.292969h5.835938v1.324219h-5.953125c-3.664063 0-6.613281 2.65625-6.613281 5.953125s2.949218 5.953125 6.613281 5.953125v-3.96875c0-1.097657.886719-1.984375 1.984375-1.984375h7.9375c1.101562 0 1.988281-.886719 1.988281-1.984375v-3.96875c0-3.664063-2.65625-6.617188-5.957031-6.617188zm-1.984375 1.324219c.367187 0 .664063.296875.664063.660156 0 .367188-.296876.664063-.664063.664063-.363281 0-.660156-.296875-.660156-.664063 0-.363281.296875-.660156.660156-.660156zm0 0" fill="url(#h)"/><path d="m15.875 2.980469c-2.890625 0-5.285156 2.265625-5.835938 5.289062h.070313c.65625-2.859375 2.984375-4.960937 5.765625-4.960937 3.300781 0 5.957031 2.953125 5.957031 6.617187v-.332031c0-3.664062-2.65625-6.613281-5.957031-6.613281zm-2.625 2.148437c-.011719.050782-.019531.109375-.019531.164063 0 .367187.296875.664062.660156.664062.367187 0 .664063-.296875.664063-.664062 0-.054688-.007813-.113281-.023438-.164063-.070312.285156-.328125.496094-.640625.496094-.308594 0-.566406-.210938-.640625-.496094zm-1.34375 4.464844h-1.984375c-3.664063 0-6.613281 2.65625-6.613281 5.953125v.167969c.097656-3.222656 3.011718-5.789063 6.613281-5.789063h5.953125v-.332031zm0 0" fill="#fff" fill-opacity=".392157"/><path d="m21.832031 9.59375v.332031c3.601563 0 6.515625 2.566407 6.609375 5.789063.003906-.058594.003906-.113282.003906-.167969 0-3.296875-2.949218-5.953125-6.613281-5.953125zm-5.957031 13.230469v.332031h5.769531c.023438-.109375.046875-.21875.066407-.332031zm1.34375 3.472656c-.011719.054687-.019531.109375-.019531.164063 0 .367187.296875.664062.660156.664062.367187 0 .664063-.296875.664063-.664062 0-.054688-.007813-.109376-.023438-.164063-.070312.285156-.328125.496094-.640625.496094-.308594 0-.566406-.210938-.640625-.496094zm0 0" fill="#fff" fill-opacity=".392157"/><path d="m28.441406 15.21875c-.09375 3.21875-3.007812 5.785156-6.609375 5.785156h-1.984375s0 0-.003906 0h-3.96875v.332032h3.96875.003906 1.984375c3.664063 0 6.613281-2.65625 6.613281-5.953126 0-.054687 0-.109374-.003906-.164062zm-18.519531 5.785156v.332032c0 3.664062 2.65625 6.617187 5.953125 6.617187 2.890625 0 5.289062-2.265625 5.835938-5.292969h-.066407c-.660156 2.859375-2.984375 4.960938-5.769531 4.960938-3.296875 0-5.953125-2.949219-5.953125-6.617188zm7.9375 3.96875c-.363281 0-.660156.296875-.660156.664063 0 .054687.007812.113281.019531.164062.074219-.285156.332031-.496093.640625-.496093.3125 0 .570313.210937.640625.496093.015625-.050781.023438-.109375.023438-.164062 0-.367188-.296876-.664063-.664063-.664063zm0 0" fill-opacity=".235294"/><path d="m15.875 2.800781c-2.9375 0-5.371094 2.304688-5.925781 5.371094-.003907.027344.003906.054687.019531.078125.019531.019531.042969.03125.070312.03125h5.742188v1.136719h-3.875c-.003906 0-.003906 0 0 0h-1.984375c-3.710937 0-6.707031 2.691406-6.707031 6.046875 0 3.355468 2.996094 6.046875 6.707031 6.046875.054687 0 .09375-.042969.09375-.09375v-3.96875c0-1.046875.84375-1.890625 1.890625-1.890625h7.9375c1.152344 0 2.082031-.929688 2.082031-2.078125v-3.96875c0-3.710938-2.695312-6.710938-6.050781-6.710938zm0 .1875c3.242188 0 5.863281 2.902344 5.863281 6.523438v3.96875c0 1.050781-.84375 1.890625-1.894531 1.890625h-7.9375c-1.148438 0-2.078125.929687-2.078125 2.078125v3.875c-3.574219-.046875-6.425781-2.644531-6.425781-5.859375 0-3.242188 2.902344-5.859375 6.519531-5.859375h1.984375s.003906 0 0 0h3.96875c.054688 0 .09375-.042969.09375-.09375v-1.324219c0-.050781-.039062-.09375-.09375-.09375h-5.71875c.578125-2.929688 2.914062-5.105469 5.71875-5.105469zm-1.984375 1.136719c-.414063 0-.753906.339844-.753906.753906 0 .417969.339843.757813.753906.757813.417969 0 .757813-.339844.757813-.757813 0-.414062-.339844-.753906-.757813-.753906zm0 .1875c.316406 0 .570313.253906.570313.566406 0 .316406-.253907.570313-.570313.570313s-.566406-.253907-.566406-.570313c0-.3125.25-.566406.566406-.566406zm0 0" fill="#212121"/><path d="m21.832031 9.417969c-.054687 0-.09375.042969-.09375.09375v3.96875c0 1.050781-.84375 1.890625-1.894531 1.890625h-7.9375c-1.148438 0-2.078125.929687-2.078125 2.078125v3.96875c0 3.710937 2.695313 6.710937 6.046875 6.710937 2.941406 0 5.375-2.304687 5.929688-5.371094.003906-.027343-.003907-.054687-.019532-.074218-.019531-.023438-.046875-.035156-.074218-.035156h-5.742188v-1.136719h3.875c.003906 0 .007812 0 .003906 0h1.984375c3.707031 0 6.707031-2.691407 6.707031-6.046875 0-3.355469-3-6.046875-6.707031-6.046875zm.09375.191406c3.574219.046875 6.425781 2.640625 6.425781 5.855469 0 3.242187-2.902343 5.859375-6.519531 5.859375h-1.984375c-.003906 0-.003906 0-.003906 0h-3.96875c-.050781 0-.09375.042969-.09375.09375v1.324219c0 .050781.042969.09375.09375.09375h5.71875c-.578125 2.929687-2.910156 5.105468-5.71875 5.105468-3.242188 0-5.859375-2.902344-5.859375-6.523437v-3.96875c0-1.046875.84375-1.890625 1.890625-1.890625h7.9375c1.152344 0 2.082031-.929688 2.082031-2.078125zm-4.066406 15.683594c-.414063 0-.753906.339843-.753906.757812 0 .414063.339843.753907.753906.753907.417969 0 .757813-.339844.757813-.753907 0-.417969-.339844-.757812-.757813-.757812zm0 .1875c.316406 0 .570313.253906.570313.570312 0 .316407-.253907.566407-.570313.566407s-.566406-.25-.566406-.566407c0-.316406.25-.570312.566406-.570312zm0 0" fill="#212121"/><g fill="#fff" fill-opacity=".235294"><path d="m5.636719 12.023438c.1875.109374.121093.585937-.152344 1.058593-.273437.476563-.648437.773438-.839844.664063-.1875-.109375-.121093-.585938.152344-1.058594.273437-.476562.648437-.773438.839844-.664062zm0 0"/><path d="m12.554688 5.011719c.191406.109375.125.585937-.152344 1.058593-.273438.476563-.648438.773438-.835938.664063-.191406-.109375-.125-.585937.148438-1.058594.273437-.476562.652344-.773437.839844-.664062zm0 0"/></g></svg>

<?xml version="1.0" encoding="UTF-8"?>
<svg xmlns="http://www.w3.org/2000/svg" xmlns:xlink="http://www.w3.org/1999/xlink" width="32pt" height="32pt" viewBox="0 0 32 32" version="1.1">
<defs>
<radialGradient id="radial0" gradientUnits="userSpaceOnUse" cx="450.908936" cy="189.579361" fx="450.908936" fy="189.579361" r="21.166656" gradientTransform="matrix(0.00000017417,-0.0683658,-0.140638,-0.0000000888462,42.869346,59.315508)">
<stop offset="0" style="stop-color:rgb(0%,0%,0%);stop-opacity:0.313726;"/>
<stop offset="0.222222" style="stop-color:rgb(0%,0%,0%);stop-opacity:0.27451;"/>
<stop offset="1" style="stop-color:rgb(0%,0%,0%);stop-opacity:0;"/>
</radialGradient>
<radialGradient id="radial1" gradientUnits="userSpaceOnUse" cx="450.908936" cy="189.579361" fx="450.908936" fy="189.579361" r="21.166656" gradientTransform="matrix(-0.00000017417,0.0683658,0.140638,0.0000000888462,-11.116314,-2.916897)">
<stop offset="0" style="stop-color:rgb(0%,0%,0%);stop-opacity:0.313726;"/>
<stop offset="0.222222" style="stop-color:rgb(0%,0%,0%);stop-opacity:0.27451;"/>
<stop offset="1" style="stop-color:rgb(0%,0%,0%);stop-opacity:0;"/>
</radialGradient>
<radialGradient id="radial2" gradientUnits="userSpaceOnUse" cx="450.908936" cy="189.579361" fx="450.908936" fy="189.579361" r="21.166656" gradientTransform="matrix(-0.00000017417,-0.0683658,0.140638,-0.0000000888462,-11.116314,59.315508)">
<stop offset="0" style="stop-color:rgb(0%,0%,0%);stop-opacity:0.313726;"/>
<stop offset="0.222222" style="stop-color:rgb(0%,0%,0%);stop-opacity:0.27451;"/>
<stop offset="1" style="stop-color:rgb(0%,0%,0%);stop-opacity:0;"/>
</radialGradient>
<radialGradient id="radial3" gradientUnits="userSpaceOnUse" cx="450.908936" cy="189.579361" fx="450.908936" fy="189.579361" r="21.166656" gradientTransform="matrix(0.00000017417,0.0683658,-0.140638,0.0000000888462,42.869344,-2.916898)">
<stop offset="0" style="stop-color:rgb(0%,0%,0%);stop-opacity:0.313726;"/>
<stop offset="0.222222" style="stop-color:rgb(0%,0%,0%);stop-opacity:0.27451;"/>
<stop offset="1" style="stop-color:rgb(0%,0%,0%);stop-opacity:0;"/>
</radialGradient>
<linearGradient id="linear0" gradientUnits="userSpaceOnUse" x1="255.323059" y1="233.5" x2="255.323044" y2="254.666656" gradientTransform="matrix(0.0133601,0,0,0.0546927,12.465385,15.428569)">
<stop offset="0" style="stop-color:rgb(0%,0%,0%);stop-opacity:0.27451;"/>
<stop offset="1" style="stop-color:rgb(0%,0%,0%);stop-opacity:0;"/>
</linearGradient>
<linearGradient id="linear1" gradientUnits="userSpaceOnUse" x1="264.583344" y1="233.5" x2="264.583344" y2="-62.833332" gradientTransform="matrix(0.062506,0,0,0.062506,0,13.438783)">
<stop offset="0" style="stop-color:rgb(100%,65.490198%,14.901961%);stop-opacity:1;"/>
<stop offset="1" style="stop-color:rgb(100%,71.764708%,30.19608%);stop-opacity:1;"/>
</linearGradient>
<linearGradient id="linear2" gradientUnits="userSpaceOnUse" x1="720" y1="1295.118164" x2="720" y2="175.118118" gradientTransform="matrix(0.016538,0,0,0.016538,0,0)">
<stop offset="0" style="stop-color:rgb(25.882354%,64.705884%,96.078432%);stop-opacity:1;"/>
<stop offset="1" style="stop-color:rgb(39.215687%,70.980394%,96.470588%);stop-opacity:1;"/>
</linearGradient>
</defs>
<g id="surface1">
<path style=" stroke:none;fill-rule:nonzero;fill:url(#radial0);" d="M 16.539062 28.199219 L 19.183594 28.199219 L 19.183594 27.042969 L 16.539062 27.042969 Z M 16.539062 28.199219 "/>
<path style=" stroke:none;fill-rule:nonzero;fill:url(#radial1);" d="M 15.214844 28.199219 L 12.570312 28.199219 L 12.570312 29.355469 L 15.214844 29.355469 Z M 15.214844 28.199219 "/>
<path style=" stroke:none;fill-rule:nonzero;fill:url(#radial2);" d="M 15.214844 28.199219 L 12.570312 28.199219 L 12.570312 27.042969 L 15.214844 27.042969 Z M 15.214844 28.199219 "/>
<path style=" stroke:none;fill-rule:nonzero;fill:url(#radial3);" d="M 16.539062 28.199219 L 19.183594 28.199219 L 19.183594 29.355469 L 16.539062 29.355469 Z M 16.539062 28.199219 "/>
<path style=" stroke:none;fill-rule:nonzero;fill:url(#linear0);" d="M 15.214844 27.910156 L 16.539062 27.910156 L 16.539062 29.355469 L 15.214844 29.355469 Z M 15.214844 27.910156 "/>
<path style=" stroke:none;fill-rule:nonzero;fill:rgb(0%,0%,0%);fill-opacity:0.235294;" d="M 13.890625 3.804688 C 13.527344 3.804688 13.230469 4.101562 13.230469 4.46875 C 13.230469 4.523438 13.238281 4.578125 13.25 4.632812 C 13.324219 4.347656 13.582031 4.136719 13.890625 4.136719 C 14.203125 4.136719 14.460938 4.347656 14.53125 4.632812 C 14.546875 4.578125 14.554688 4.523438 14.554688 4.46875 C 14.554688 4.101562 14.257812 3.804688 13.890625 3.804688 Z M 10.109375 7.773438 C 10.085938 7.882812 10.0625 7.996094 10.039062 8.105469 L 15.875 8.105469 L 15.875 7.773438 Z M 21.832031 13.066406 C 21.832031 14.167969 20.945312 15.050781 19.84375 15.050781 L 11.90625 15.050781 C 10.808594 15.050781 9.921875 15.9375 9.921875 17.035156 L 9.921875 17.367188 C 9.921875 16.265625 10.808594 15.382812 11.90625 15.382812 L 19.84375 15.382812 C 20.945312 15.382812 21.832031 14.496094 21.832031 13.398438 Z M 3.308594 15.21875 C 3.308594 15.273438 3.308594 15.328125 3.308594 15.382812 C 3.308594 18.679688 6.257812 21.335938 9.921875 21.335938 L 9.921875 21.003906 C 6.320312 21.003906 3.40625 18.4375 3.308594 15.21875 Z M 3.308594 15.21875 "/>
<path style=" stroke:none;fill-rule:nonzero;fill:url(#linear1);" d="M 15.875 28.035156 C 18.765625 28.035156 21.164062 25.769531 21.710938 22.742188 L 15.875 22.742188 L 15.875 21.417969 L 19.84375 21.417969 C 19.847656 21.417969 19.847656 21.417969 19.847656 21.417969 L 21.832031 21.417969 C 25.496094 21.417969 28.445312 18.761719 28.445312 15.464844 C 28.445312 12.167969 25.496094 9.511719 21.832031 9.511719 L 21.832031 13.480469 C 21.832031 14.578125 20.945312 15.464844 19.84375 15.464844 L 11.90625 15.464844 C 10.808594 15.464844 9.921875 16.351562 9.921875 17.449219 L 9.921875 21.417969 C 9.921875 25.082031 12.578125 28.035156 15.875 28.035156 Z M 17.859375 26.710938 C 17.496094 26.710938 17.199219 26.414062 17.199219 26.050781 C 17.199219 25.683594 17.496094 25.386719 17.859375 25.386719 C 18.226562 25.386719 18.523438 25.683594 18.523438 26.050781 C 18.523438 26.414062 18.226562 26.710938 17.859375 26.710938 Z M 17.859375 26.710938 "/>
<path style=" stroke:none;fill-rule:nonzero;fill:rgb(0%,0%,0%);fill-opacity:0.235294;" d="M 9.921875 13.480469 L 9.921875 18.109375 C 9.921875 17.011719 10.808594 16.125 11.90625 16.125 L 19.84375 16.125 C 20.945312 16.125 21.832031 15.242188 21.832031 14.140625 L 21.832031 13.480469 Z M 9.921875 13.480469 "/>
<path style=" stroke:none;fill-rule:nonzero;fill:url(#linear2);" d="M 15.875 2.894531 C 12.984375 2.894531 10.589844 5.160156 10.039062 8.1875 L 15.875 8.1875 L 15.875 9.511719 L 9.921875 9.511719 C 6.257812 9.511719 3.308594 12.167969 3.308594 15.464844 C 3.308594 18.761719 6.257812 21.417969 9.921875 21.417969 L 9.921875 17.449219 C 9.921875 16.351562 10.808594 15.464844 11.90625 15.464844 L 19.84375 15.464844 C 20.945312 15.464844 21.832031 14.578125 21.832031 13.480469 L 21.832031 9.511719 C 21.832031 5.847656 19.175781 2.894531 15.875 2.894531 Z M 13.890625 4.21875 C 14.257812 4.21875 14.554688 4.515625 14.554688 4.878906 C 14.554688 5.246094 14.257812 5.542969 13.890625 5.542969 C 13.527344 5.542969 13.230469 5.246094 13.230469 4.878906 C 13.230469 4.515625 13.527344 4.21875 13.890625 4.21875 Z M 13.890625 4.21875 "/>
<path style=" stroke:none;fill-rule:nonzero;fill:rgb(100%,100%,100%);fill-opacity:0.392157;" d="M 15.875 2.980469 C 12.984375 2.980469 10.589844 5.246094 10.039062 8.269531 L 10.109375 8.269531 C 10.765625 5.410156 13.09375 3.308594 15.875 3.308594 C 19.175781 3.308594 21.832031 6.261719 21.832031 9.925781 L 21.832031 9.59375 C 21.832031 5.929688 19.175781 2.980469 15.875 2.980469 Z M 13.25 5.128906 C 13.238281 5.179688 13.230469 5.238281 13.230469 5.292969 C 13.230469 5.660156 13.527344 5.957031 13.890625 5.957031 C 14.257812 5.957031 14.554688 5.660156 14.554688 5.292969 C 14.554688 5.238281 14.546875 5.179688 14.53125 5.128906 C 14.460938 5.414062 14.203125 5.625 13.890625 5.625 C 13.582031 5.625 13.324219 5.414062 13.25 5.128906 Z M 11.90625 9.59375 L 9.921875 9.59375 C 6.257812 9.59375 3.308594 12.25 3.308594 15.546875 C 3.308594 15.601562 3.308594 15.65625 3.308594 15.714844 C 3.40625 12.492188 6.320312 9.925781 9.921875 9.925781 L 15.875 9.925781 L 15.875 9.59375 Z M 11.90625 9.59375 "/>
<path style=" stroke:none;fill-rule:nonzero;fill:rgb(100%,100%,100%);fill-opacity:0.392157;" d="M 21.832031 9.59375 L 21.832031 9.925781 C 25.433594 9.925781 28.347656 12.492188 28.441406 15.714844 C 28.445312 15.65625 28.445312 15.601562 28.445312 15.546875 C 28.445312 12.25 25.496094 9.59375 21.832031 9.59375 Z M 15.875 22.824219 L 15.875 23.15625 L 21.644531 23.15625 C 21.667969 23.046875 21.691406 22.9375 21.710938 22.824219 Z M 17.21875 26.296875 C 17.207031 26.351562 17.199219 26.40625 17.199219 26.460938 C 17.199219 26.828125 17.496094 27.125 17.859375 27.125 C 18.226562 27.125 18.523438 26.828125 18.523438 26.460938 C 18.523438 26.40625 18.515625 26.351562 18.5 26.296875 C 18.429688 26.582031 18.171875 26.792969 17.859375 26.792969 C 17.550781 26.792969 17.292969 26.582031 17.21875 26.296875 Z M 17.21875 26.296875 "/>
<path style=" stroke:none;fill-rule:nonzero;fill:rgb(0%,0%,0%);fill-opacity:0.235294;" d="M 28.441406 15.21875 C 28.347656 18.4375 25.433594 21.003906 21.832031 21.003906 L 19.847656 21.003906 C 19.847656 21.003906 19.847656 21.003906 19.84375 21.003906 L 15.875 21.003906 L 15.875 21.335938 L 19.84375 21.335938 C 19.847656 21.335938 19.847656 21.335938 19.847656 21.335938 L 21.832031 21.335938 C 25.496094 21.335938 28.445312 18.679688 28.445312 15.382812 C 28.445312 15.328125 28.445312 15.273438 28.441406 15.21875 Z M 9.921875 21.003906 L 9.921875 21.335938 C 9.921875 25 12.578125 27.953125 15.875 27.953125 C 18.765625 27.953125 21.164062 25.6875 21.710938 22.660156 L 21.644531 22.660156 C 20.984375 25.519531 18.660156 27.621094 15.875 27.621094 C 12.578125 27.621094 9.921875 24.671875 9.921875 21.003906 Z M 17.859375 24.972656 C 17.496094 24.972656 17.199219 25.269531 17.199219 25.636719 C 17.199219 25.691406 17.207031 25.75 17.21875 25.800781 C 17.292969 25.515625 17.550781 25.304688 17.859375 25.304688 C 18.171875 25.304688 18.429688 25.515625 18.5 25.800781 C 18.515625 25.75 18.523438 25.691406 18.523438 25.636719 C 18.523438 25.269531 18.226562 24.972656 17.859375 24.972656 Z M 17.859375 24.972656 "/>
<path style=" stroke:none;fill-rule:nonzero;fill:rgb(12.941177%,12.941177%,12.941177%);fill-opacity:1;" d="M 15.875 2.800781 C 12.9375 2.800781 10.503906 5.105469 9.949219 8.171875 C 9.945312 8.199219 9.953125 8.226562 9.96875 8.25 C 9.988281 8.269531 10.011719 8.28125 10.039062 8.28125 L 15.78125 8.28125 L 15.78125 9.417969 L 11.90625 9.417969 C 11.902344 9.417969 11.902344 9.417969 11.90625 9.417969 L 9.921875 9.417969 C 6.210938 9.417969 3.214844 12.109375 3.214844 15.464844 C 3.214844 18.820312 6.210938 21.511719 9.921875 21.511719 C 9.976562 21.511719 10.015625 21.46875 10.015625 21.417969 L 10.015625 17.449219 C 10.015625 16.402344 10.859375 15.558594 11.90625 15.558594 L 19.84375 15.558594 C 20.996094 15.558594 21.925781 14.628906 21.925781 13.480469 L 21.925781 9.511719 C 21.925781 5.800781 19.230469 2.800781 15.875 2.800781 Z M 15.875 2.988281 C 19.117188 2.988281 21.738281 5.890625 21.738281 9.511719 L 21.738281 13.480469 C 21.738281 14.53125 20.894531 15.371094 19.84375 15.371094 L 11.90625 15.371094 C 10.757812 15.371094 9.828125 16.300781 9.828125 17.449219 L 9.828125 21.324219 C 6.253906 21.277344 3.402344 18.679688 3.402344 15.464844 C 3.402344 12.222656 6.304688 9.605469 9.921875 9.605469 L 11.90625 9.605469 C 11.90625 9.605469 11.910156 9.605469 11.90625 9.605469 L 15.875 9.605469 C 15.929688 9.605469 15.96875 9.5625 15.96875 9.511719 L 15.96875 8.1875 C 15.96875 8.136719 15.929688 8.09375 15.875 8.09375 L 10.15625 8.09375 C 10.734375 5.164062 13.070312 2.988281 15.875 2.988281 Z M 13.890625 4.125 C 13.476562 4.125 13.136719 4.464844 13.136719 4.878906 C 13.136719 5.296875 13.476562 5.636719 13.890625 5.636719 C 14.308594 5.636719 14.648438 5.296875 14.648438 4.878906 C 14.648438 4.464844 14.308594 4.125 13.890625 4.125 Z M 13.890625 4.3125 C 14.207031 4.3125 14.460938 4.566406 14.460938 4.878906 C 14.460938 5.195312 14.207031 5.449219 13.890625 5.449219 C 13.574219 5.449219 13.324219 5.195312 13.324219 4.878906 C 13.324219 4.566406 13.574219 4.3125 13.890625 4.3125 Z M 13.890625 4.3125 "/>
<path style=" stroke:none;fill-rule:nonzero;fill:rgb(12.941177%,12.941177%,12.941177%);fill-opacity:1;" d="M 21.832031 9.417969 C 21.777344 9.417969 21.738281 9.460938 21.738281 9.511719 L 21.738281 13.480469 C 21.738281 14.53125 20.894531 15.371094 19.84375 15.371094 L 11.90625 15.371094 C 10.757812 15.371094 9.828125 16.300781 9.828125 17.449219 L 9.828125 21.417969 C 9.828125 25.128906 12.523438 28.128906 15.875 28.128906 C 18.816406 28.128906 21.25 25.824219 21.804688 22.757812 C 21.808594 22.730469 21.800781 22.703125 21.785156 22.683594 C 21.765625 22.660156 21.738281 22.648438 21.710938 22.648438 L 15.96875 22.648438 L 15.96875 21.511719 L 19.84375 21.511719 C 19.847656 21.511719 19.851562 21.511719 19.847656 21.511719 L 21.832031 21.511719 C 25.539062 21.511719 28.539062 18.820312 28.539062 15.464844 C 28.539062 12.109375 25.539062 9.417969 21.832031 9.417969 Z M 21.925781 9.609375 C 25.5 9.65625 28.351562 12.25 28.351562 15.464844 C 28.351562 18.707031 25.449219 21.324219 21.832031 21.324219 L 19.847656 21.324219 C 19.84375 21.324219 19.84375 21.324219 19.84375 21.324219 L 15.875 21.324219 C 15.824219 21.324219 15.78125 21.367188 15.78125 21.417969 L 15.78125 22.742188 C 15.78125 22.792969 15.824219 22.835938 15.875 22.835938 L 21.59375 22.835938 C 21.015625 25.765625 18.683594 27.941406 15.875 27.941406 C 12.632812 27.941406 10.015625 25.039062 10.015625 21.417969 L 10.015625 17.449219 C 10.015625 16.402344 10.859375 15.558594 11.90625 15.558594 L 19.84375 15.558594 C 20.996094 15.558594 21.925781 14.628906 21.925781 13.480469 Z M 17.859375 25.292969 C 17.445312 25.292969 17.105469 25.632812 17.105469 26.050781 C 17.105469 26.464844 17.445312 26.804688 17.859375 26.804688 C 18.277344 26.804688 18.617188 26.464844 18.617188 26.050781 C 18.617188 25.632812 18.277344 25.292969 17.859375 25.292969 Z M 17.859375 25.480469 C 18.175781 25.480469 18.429688 25.734375 18.429688 26.050781 C 18.429688 26.367188 18.175781 26.617188 17.859375 26.617188 C 17.542969 26.617188 17.292969 26.367188 17.292969 26.050781 C 17.292969 25.734375 17.542969 25.480469 17.859375 25.480469 Z M 17.859375 25.480469 "/>
<path style=" stroke:none;fill-rule:nonzero;fill:rgb(100%,100%,100%);fill-opacity:0.235294;" d="M 5.636719 12.023438 C 5.824219 12.132812 5.757812 12.609375 5.484375 13.082031 C 5.210938 13.558594 4.835938 13.855469 4.644531 13.746094 C 4.457031 13.636719 4.523438 13.160156 4.796875 12.6875 C 5.070312 12.210938 5.445312 11.914062 5.636719 12.023438 Z M 5.636719 12.023438 "/>
<path style=" stroke:none;fill-rule:nonzero;fill:rgb(100%,100%,100%);fill-opacity:0.235294;" d="M 12.554688 5.011719 C 12.746094 5.121094 12.679688 5.597656 12.402344 6.070312 C 12.128906 6.546875 11.753906 6.84375 11.566406 6.734375 C 11.375 6.625 11.441406 6.148438 11.714844 5.675781 C 11.988281 5.199219 12.367188 4.902344 12.554688 5.011719 Z M 12.554688 5.011719 "/>
</g>
</svg>
